source/img/services/icon-services/icon-diagram.svg

<svg width="200" height="130" viewBox="0 0 200 130" fill="none" xmlns="http://www.w3.org/2000/svg">
<g clip-path="url(#clip0)">
<g filter="url(#filter0_di)">
<path d="M95.4651 3.02332C84.6365 3.02332 74.0065 5.93134 64.6859 11.4436C55.3652 16.9558 47.6959 24.8699 42.4791 34.3591C37.2624 43.8483 34.6897 54.5644 35.0298 65.3877C35.37 76.211 38.6105 86.7443 44.4127 95.8872L95.4651 63.4884V3.02332Z" fill="url(#paint0_linear)"/>
</g>
<g filter="url(#filter1_di)">
<path d="M83.2725 125.03C98.1886 128.909 114.023 126.946 127.54 119.541C141.057 112.136 151.236 99.8494 155.997 85.191L98.4899 66.5116L83.2725 125.03Z" fill="url(#paint1_linear)"/>
</g>
<path fill-rule="evenodd" clip-rule="evenodd" d="M74.9621 128.166L91.3415 73.0185L42.0436 104.82C49.8466 116.177 61.5118 124.454 74.9621 128.166ZM40.7729 105.64C49.0561 117.715 61.587 126.396 75.9941 130L93.9531 69.5349L39.9336 104.383C40.2083 104.806 40.4881 105.225 40.7729 105.64Z" fill="#0A3D76"/>
<path fill-rule="evenodd" clip-rule="evenodd" d="M161.036 77.2932C163.549 68.8538 164.142 59.952 162.763 51.2425C161.307 42.0536 157.698 33.3396 152.229 25.8129C146.761 18.2863 139.589 12.1607 131.299 7.93707C123.437 3.93132 114.782 1.74417 105.974 1.52918L103.08 60.8504L161.036 77.2932ZM101.512 61.9767L104.535 4.78402e-10C114.077 -3.79536e-05 123.483 2.25824 131.985 6.59019C140.487 10.9221 147.843 17.2048 153.452 24.9244C159.061 32.6441 162.763 41.5815 164.256 51.006C165.748 60.4306 164.989 70.0746 162.041 79.1496L101.512 61.9767Z" fill="#71A0DD"/>
<path d="M124.585 42.4706C126.52 42.4706 127.765 41.4911 127.765 40.1004C127.765 38.8911 126.701 38.2502 125.879 38.1655C126.774 38.0083 127.644 37.3432 127.644 36.3274C127.644 34.9851 126.483 34.1385 124.597 34.1385C123.182 34.1385 122.166 34.6827 121.513 35.4204L122.372 36.4967C122.94 35.9525 123.642 35.6623 124.415 35.6623C125.262 35.6623 125.915 35.9767 125.915 36.6176C125.915 37.2102 125.322 37.4762 124.428 37.4762C124.125 37.4762 123.569 37.4762 123.424 37.4641V39.012C123.545 38.9999 124.089 38.9879 124.428 38.9879C125.552 38.9879 126.048 39.2781 126.048 39.919C126.048 40.5237 125.504 40.9469 124.524 40.9469C123.738 40.9469 122.855 40.6083 122.299 40.0279L121.404 41.1767C121.997 41.9023 123.097 42.4706 124.585 42.4706Z" fill="#A62E41"/>
<path d="M131.96 42.4706C133.907 42.4706 135.189 41.3944 135.189 39.6772C135.189 38.0446 133.968 37.0651 132.601 37.0651C131.864 37.0651 131.211 37.3553 130.824 37.7423V35.7711H134.645V34.2595H129.107V38.8911L130.304 39.2055C130.787 38.746 131.332 38.5525 131.997 38.5525C132.916 38.5525 133.448 39.0362 133.448 39.7497C133.448 40.4027 132.904 40.9469 131.948 40.9469C131.102 40.9469 130.352 40.6325 129.808 40.0641L128.853 41.2613C129.542 42.0111 130.558 42.4706 131.96 42.4706Z" fill="#A62E41"/>
<path d="M137.976 38.1534C139.221 38.1534 140.031 37.2948 140.031 36.1702C140.031 35.0334 139.221 34.1385 137.976 34.1385C136.742 34.1385 135.932 35.0334 135.932 36.1702C135.932 37.2948 136.742 38.1534 137.976 38.1534ZM138.096 42.3255L143.26 34.2595H142.341L137.189 42.3255H138.096ZM142.414 42.4706C143.647 42.4706 144.469 41.5999 144.469 40.4753C144.469 39.3385 143.647 38.4437 142.414 38.4437C141.18 38.4437 140.37 39.3385 140.37 40.4753C140.37 41.5999 141.18 42.4706 142.414 42.4706ZM137.976 37.2102C137.431 37.2102 137.02 36.799 137.02 36.1702C137.02 35.493 137.431 35.0939 137.976 35.0939C138.532 35.0939 138.931 35.493 138.931 36.1702C138.931 36.799 138.532 37.2102 137.976 37.2102ZM142.414 41.5274C141.857 41.5274 141.458 41.1283 141.458 40.4753C141.458 39.8102 141.857 39.399 142.414 39.399C142.97 39.399 143.381 39.8102 143.381 40.4753C143.381 41.1283 142.97 41.5274 142.414 41.5274Z" fill="#A62E41"/>
<path d="M60.335 108.837V100.771H58.8354L56.2959 103.323L57.2754 104.351L58.6178 102.984V108.837H60.335Z" fill="#A62E41"/>
<path d="M64.8352 108.982C66.7822 108.982 68.064 107.906 68.064 106.189C68.064 104.556 66.8426 103.577 65.4761 103.577C64.7384 103.577 64.0854 103.867 63.6984 104.254V102.283H67.5198V100.771H61.9812V105.403L63.1784 105.717C63.6622 105.258 64.2063 105.064 64.8715 105.064C65.7905 105.064 66.3226 105.548 66.3226 106.261C66.3226 106.914 65.7784 107.459 64.8231 107.459C63.9766 107.459 63.2268 107.144 62.6826 106.576L61.7273 107.773C62.4166 108.523 63.4324 108.982 64.8352 108.982Z" fill="#A62E41"/>
<path d="M70.8502 104.665C72.0958 104.665 72.906 103.806 72.906 102.682C72.906 101.545 72.0958 100.65 70.8502 100.65C69.6167 100.65 68.8065 101.545 68.8065 102.682C68.8065 103.806 69.6167 104.665 70.8502 104.665ZM70.9712 108.837L76.1349 100.771H75.2158L70.0642 108.837H70.9712ZM75.2884 108.982C76.5219 108.982 77.3442 108.112 77.3442 106.987C77.3442 105.85 76.5219 104.955 75.2884 104.955C74.0549 104.955 73.2446 105.85 73.2446 106.987C73.2446 108.112 74.0549 108.982 75.2884 108.982ZM70.8502 103.722C70.306 103.722 69.8949 103.311 69.8949 102.682C69.8949 102.005 70.306 101.605 70.8502 101.605C71.4065 101.605 71.8056 102.005 71.8056 102.682C71.8056 103.311 71.4065 103.722 70.8502 103.722ZM75.2884 108.039C74.7321 108.039 74.333 107.64 74.333 106.987C74.333 106.322 74.7321 105.911 75.2884 105.911C75.8446 105.911 76.2558 106.322 76.2558 106.987C76.2558 107.64 75.8446 108.039 75.2884 108.039Z" fill="#A62E41"/>
</g>
<defs>
<filter id="filter0_di" x="33" y="1.02332" width="68.4651" height="100.864" filterUnits="userSpaceOnUse" color-interpolation-filters="sRGB">
<feFlood flood-opacity="0" result="BackgroundImageFix"/>
<feColorMatrix in="SourceAlpha" type="matrix" values="0 0 0 0 0 0 0 0 0 0 0 0 0 0 0 0 0 0 127 0"/>
<feOffset dx="2" dy="2"/>
<feGaussianBlur stdDeviation="2"/>
<feColorMatrix type="matrix" values="0 0 0 0 0 0 0 0 0 0 0 0 0 0 0 0 0 0 0.2 0"/>
<feBlend mode="normal" in2="BackgroundImageFix" result="effect1_dropShadow"/>
<feBlend mode="normal" in="SourceGraphic" in2="effect1_dropShadow" result="shape"/>
<feColorMatrix in="SourceAlpha" type="matrix" values="0 0 0 0 0 0 0 0 0 0 0 0 0 0 0 0 0 0 127 0" result="hardAlpha"/>
<feOffset dx="-2" dy="-2"/>
<feGaussianBlur stdDeviation="2"/>
<feComposite in2="hardAlpha" operator="arithmetic" k2="-1" k3="1"/>
<feColorMatrix type="matrix" values="0 0 0 0 0 0 0 0 0 0 0 0 0 0 0 0 0 0 0.2 0"/>
<feBlend mode="normal" in2="shape" result="effect2_innerShadow"/>
</filter>
<filter id="filter1_di" x="81.2725" y="64.5116" width="80.7248" height="68.4652" filterUnits="userSpaceOnUse" color-interpolation-filters="sRGB">
<feFlood flood-opacity="0" result="BackgroundImageFix"/>
<feColorMatrix in="SourceAlpha" type="matrix" values="0 0 0 0 0 0 0 0 0 0 0 0 0 0 0 0 0 0 127 0"/>
<feOffset dx="2" dy="2"/>
<feGaussianBlur stdDeviation="2"/>
<feColorMatrix type="matrix" values="0 0 0 0 0 0 0 0 0 0 0 0 0 0 0 0 0 0 0.2 0"/>
<feBlend mode="normal" in2="BackgroundImageFix" result="effect1_dropShadow"/>
<feBlend mode="normal" in="SourceGraphic" in2="effect1_dropShadow" result="shape"/>
<feColorMatrix in="SourceAlpha" type="matrix" values="0 0 0 0 0 0 0 0 0 0 0 0 0 0 0 0 0 0 127 0" result="hardAlpha"/>
<feOffset dx="-2" dy="-2"/>
<feGaussianBlur stdDeviation="2"/>
<feComposite in2="hardAlpha" operator="arithmetic" k2="-1" k3="1"/>
<feColorMatrix type="matrix" values="0 0 0 0 0 0 0 0 0 0 0 0 0 0 0 0 0 0 0.2 0"/>
<feBlend mode="normal" in2="shape" result="effect2_innerShadow"/>
</filter>
<linearGradient id="paint0_linear" x1="93.6012" y1="49.4553" x2="36.7741" y2="48.6608" gradientUnits="userSpaceOnUse">
<stop stop-color="#A62E41"/>
<stop offset="1" stop-color="#E13152"/>
</linearGradient>
<linearGradient id="paint1_linear" x1="119.635" y1="66.5116" x2="119.635" y2="126.977" gradientUnits="userSpaceOnUse">
<stop stop-color="#D6516B"/>
<stop offset="1" stop-color="#A0132F"/>
</linearGradient>
<clipPath id="clip0">
<rect width="200" height="130" fill="white"/>
</clipPath>
</defs>
</svg>

<svg width="200" height="130" fill="none" xmlns="http://www.w3.org/2000/svg"><g clip-path="url(#clip0)"><g filter="url(#filter0_di)"><path d="M95.465 3.023a60.465 60.465 0 00-51.052 92.864l51.052-32.399V3.023z" fill="url(#paint0_linear)"/></g><g filter="url(#filter1_di)"><path d="M83.272 125.03a60.463 60.463 0 0072.725-39.839L98.49 66.511 83.272 125.03z" fill="url(#paint1_linear)"/></g><path fill-rule="evenodd" clip-rule="evenodd" d="M74.962 128.166l16.38-55.147-49.298 31.801c7.803 11.357 19.468 19.634 32.918 23.346zm-34.19-22.526c8.284 12.075 20.815 20.756 35.222 24.36l17.96-60.465-54.02 34.848c.274.423.554.842.839 1.257z" fill="#0A3D76"/><path fill-rule="evenodd" clip-rule="evenodd" d="M161.036 77.293A58.956 58.956 0 00105.974 1.53l-2.894 59.32 57.956 16.443zm-59.524-15.316L104.535 0a60.463 60.463 0 0159.721 51.006 60.483 60.483 0 01-2.215 28.144l-60.529-17.173z" fill="#71A0DD"/><path d="M124.585 42.47c1.935 0 3.18-.979 3.18-2.37 0-1.209-1.064-1.85-1.886-1.934.895-.158 1.765-.823 1.765-1.839 0-1.342-1.161-2.188-3.047-2.188-1.415 0-2.431.544-3.084 1.281l.859 1.077a2.901 2.901 0 012.043-.835c.847 0 1.5.315 1.5.956 0 .592-.593.858-1.487.858-.303 0-.859 0-1.004-.012v1.548c.121-.012.665-.024 1.004-.024 1.124 0 1.62.29 1.62.931 0 .605-.544 1.028-1.524 1.028-.786 0-1.669-.339-2.225-.92l-.895 1.15c.593.725 1.693 1.294 3.181 1.294zm7.375 0c1.947 0 3.229-1.076 3.229-2.793 0-1.632-1.221-2.612-2.588-2.612-.737 0-1.39.29-1.777.677v-1.97h3.821V34.26h-5.538v4.631l1.197.315c.483-.46 1.028-.654 1.693-.654.919 0 1.451.484 1.451 1.198 0 .653-.544 1.197-1.5 1.197-.846 0-1.596-.315-2.14-.883l-.955 1.197c.689.75 1.705 1.21 3.107 1.21zm6.016-4.317c1.245 0 2.055-.858 2.055-1.983 0-1.137-.81-2.032-2.055-2.032-1.234 0-2.044.895-2.044 2.032 0 1.125.81 1.983 2.044 1.983zm.12 4.172l5.164-8.066h-.919l-5.152 8.066h.907zm4.318.146c1.233 0 2.055-.871 2.055-1.996 0-1.136-.822-2.031-2.055-2.031-1.234 0-2.044.895-2.044 2.031 0 1.125.81 1.996 2.044 1.996zm-4.438-5.26c-.545 0-.956-.412-.956-1.04 0-.678.411-1.077.956-1.077.556 0 .955.399.955 1.076 0 .629-.399 1.04-.955 1.04zm4.438 4.316c-.557 0-.956-.399-.956-1.052 0-.665.399-1.076.956-1.076.556 0 .967.411.967 1.076 0 .653-.411 1.052-.967 1.052zm-82.079 67.31v-8.066h-1.5l-2.54 2.552.98 1.028 1.343-1.367v5.853h1.717zm4.5.145c1.947 0 3.229-1.076 3.229-2.793 0-1.633-1.221-2.612-2.588-2.612-.738 0-1.39.29-1.778.677v-1.971h3.822v-1.512h-5.54v4.632l1.197.314c.484-.459 1.028-.653 1.694-.653.918 0 1.45.484 1.45 1.197 0 .653-.544 1.198-1.499 1.198-.846 0-1.596-.315-2.14-.883l-.956 1.197c.69.75 1.705 1.209 3.108 1.209zm6.015-4.317c1.246 0 2.056-.859 2.056-1.983 0-1.137-.81-2.032-2.056-2.032-1.233 0-2.043.895-2.043 2.032 0 1.124.81 1.983 2.043 1.983zm.121 4.172l5.164-8.066h-.92l-5.15 8.066h.906zm4.317.145c1.234 0 2.056-.87 2.056-1.995 0-1.137-.822-2.032-2.056-2.032-1.233 0-2.043.895-2.043 2.032 0 1.125.81 1.995 2.043 1.995zm-4.438-5.26c-.544 0-.955-.411-.955-1.04 0-.677.411-1.077.955-1.077.556 0 .956.4.956 1.077 0 .629-.4 1.04-.956 1.04zm4.438 4.317c-.556 0-.955-.399-.955-1.052 0-.665.4-1.076.955-1.076.557 0 .968.411.968 1.076 0 .653-.411 1.052-.968 1.052z" fill="#A62E41"/></g><defs><linearGradient id="paint0_linear" x1="93.601" y1="49.455" x2="36.774" y2="48.661" gradientUnits="userSpaceOnUse"><stop stop-color="#A62E41"/><stop offset="1" stop-color="#E13152"/></linearGradient><linearGradient id="paint1_linear" x1="119.635" y1="66.512" x2="119.635" y2="126.977" gradientUnits="userSpaceOnUse"><stop stop-color="#D6516B"/><stop offset="1" stop-color="#A0132F"/></linearGradient><filter id="filter0_di" x="33" y="1.023" width="68.465" height="100.864" filterUnits="userSpaceOnUse" color-interpolation-filters="sRGB"><feFlood flood-opacity="0" result="BackgroundImageFix"/><feColorMatrix in="SourceAlpha" values="0 0 0 0 0 0 0 0 0 0 0 0 0 0 0 0 0 0 127 0"/><feOffset dx="2" dy="2"/><feGaussianBlur stdDeviation="2"/><feColorMatrix values="0 0 0 0 0 0 0 0 0 0 0 0 0 0 0 0 0 0 0.2 0"/><feBlend in2="BackgroundImageFix" result="effect1_dropShadow"/><feBlend in="SourceGraphic" in2="effect1_dropShadow" result="shape"/><feColorMatrix in="SourceAlpha" values="0 0 0 0 0 0 0 0 0 0 0 0 0 0 0 0 0 0 127 0" result="hardAlpha"/><feOffset dx="-2" dy="-2"/><feGaussianBlur stdDeviation="2"/><feComposite in2="hardAlpha" operator="arithmetic" k2="-1" k3="1"/><feColorMatrix values="0 0 0 0 0 0 0 0 0 0 0 0 0 0 0 0 0 0 0.2 0"/><feBlend in2="shape" result="effect2_innerShadow"/></filter><filter id="filter1_di" x="81.272" y="64.512" width="80.725" height="68.465" filterUnits="userSpaceOnUse" color-interpolation-filters="sRGB"><feFlood flood-opacity="0" result="BackgroundImageFix"/><feColorMatrix in="SourceAlpha" values="0 0 0 0 0 0 0 0 0 0 0 0 0 0 0 0 0 0 127 0"/><feOffset dx="2" dy="2"/><feGaussianBlur stdDeviation="2"/><feColorMatrix values="0 0 0 0 0 0 0 0 0 0 0 0 0 0 0 0 0 0 0.2 0"/><feBlend in2="BackgroundImageFix" result="effect1_dropShadow"/><feBlend in="SourceGraphic" in2="effect1_dropShadow" result="shape"/><feColorMatrix in="SourceAlpha" values="0 0 0 0 0 0 0 0 0 0 0 0 0 0 0 0 0 0 127 0" result="hardAlpha"/><feOffset dx="-2" dy="-2"/><feGaussianBlur stdDeviation="2"/><feComposite in2="hardAlpha" operator="arithmetic" k2="-1" k3="1"/><feColorMatrix values="0 0 0 0 0 0 0 0 0 0 0 0 0 0 0 0 0 0 0.2 0"/><feBlend in2="shape" result="effect2_innerShadow"/></filter><clipPath id="clip0"><path fill="#fff" d="M0 0h200v130H0z"/></clipPath></defs></svg>
